symbols/web/vrpano/materialsymbolsoutlined/vrpano_wght500grad200_20px.svg

<svg xmlns="http://www.w3.org/2000/svg" height="20" width="20"><path d="M4 13.146q1.375-.188 2.865-.292Q8.354 12.75 10 12.75q1.583 0 3.094.104 1.51.104 2.885.292l-4.291-5.188-2.396 2.854-1.688-2Zm-2.042 4.375q-.437 0-.729-.354-.291-.355-.291-.771V3.604q0-.416.291-.771.292-.354.729-.354.667 0 2.438.698 1.771.698 5.604.698 3.875 0 5.635-.698 1.761-.698 2.427-.698.438 0 .719.354.281.355.281.771v12.792q0 .416-.281.771-.281.354-.719.354-.666 0-2.427-.698-1.76-.698-5.635-.698-3.833 0-5.604.698t-2.438.698Zm1.417-2.938q1.604-.5 3.26-.698 1.657-.197 3.365-.197 1.708 0 3.365.197 1.656.198 3.26.698V5.417q-1.625.479-3.271.687-1.646.208-3.354.208-1.708 0-3.354-.197Q5 5.917 3.375 5.417ZM10 10Z"/></svg>

<svg xmlns="http://www.w3.org/2000/svg" height="20" width="20"><path d="M4 13.146Q5.375 12.958 6.865 12.854Q8.354 12.75 10 12.75Q11.583 12.75 13.094 12.854Q14.604 12.958 15.979 13.146L11.688 7.958L9.292 10.812L7.604 8.812ZM1.958 17.521Q1.521 17.521 1.229 17.167Q0.938 16.812 0.938 16.396V3.604Q0.938 3.188 1.229 2.833Q1.521 2.479 1.958 2.479Q2.625 2.479 4.396 3.177Q6.167 3.875 10 3.875Q13.875 3.875 15.635 3.177Q17.396 2.479 18.062 2.479Q18.5 2.479 18.781 2.833Q19.062 3.188 19.062 3.604V16.396Q19.062 16.812 18.781 17.167Q18.5 17.521 18.062 17.521Q17.396 17.521 15.635 16.823Q13.875 16.125 10 16.125Q6.167 16.125 4.396 16.823Q2.625 17.521 1.958 17.521ZM3.375 14.583Q4.979 14.083 6.635 13.885Q8.292 13.688 10 13.688Q11.708 13.688 13.365 13.885Q15.021 14.083 16.625 14.583V5.417Q15 5.896 13.354 6.104Q11.708 6.312 10 6.312Q8.292 6.312 6.646 6.115Q5 5.917 3.375 5.417ZM10 10Q10 10 10 10Q10 10 10 10Q10 10 10 10Q10 10 10 10Q10 10 10 10Q10 10 10 10Q10 10 10 10Q10 10 10 10Z"/></svg>
